X:790
T:Elizabeth Keane's
R:jig
Z:transcribed by Dave Marshall
M:6/8
K:Ddor
|: D2d cec | AGE EDC | A,DE ~F3 | cAd cGE |
D2d cec | AGE EDC | A,DE ~F3 | EDC D3 :|
|: Ade ~f3 | gfg afd | ~c3 ecc | gcc edc |
Ade ~f3 | gfg afd | ~c3 AGE | EDC D3 :|
